bps (120/120)

drums $
  perc "[sn(2,8,2), bd(4,8), ch(16,8), oh(4,8,1)]"
  # velocity "0.5"

-- see ~/livecode/lazy-helpers.tidal
bass $
  n "[1(5,8), 1(3,8,2)]"
  # midinote (fmap (+43) $ every 4 (fmap (+5)) $ every 5 (fmap (+7)) $ minor)
  # dur "1"


hush
